packages/kaspersky-hexa-ui-icons/src/iconsSVGs/48/FileText.svg

<svg xmlns="http://www.w3.org/2000/svg" width="48" height="48" fill="none" viewBox="0 0 48 48"><path fill="currentColor" fill-rule="evenodd" d="M35.41 0H5v48h38V7.59zM36 3.41 39.59 7H36zM7 46V2h27v7h7v37zm22-30H19v-2h10zm-16 2h22v2H13zm0 4h22v2H13zm0 4h22v2H13zm0 4h22v2H13zm0 4h22v2H13z" clip-rule="evenodd"/></svg>

<svg width="48" height="48" viewBox="0 0 48 48" fill="none" xmlns="http://www.w3.org/2000/svg">
<path fill-rule="evenodd" clip-rule="evenodd" d="M35.41 0H5V48H43V7.59L35.41 0ZM36 3.41L39.59 7H36V3.41ZM7 46V2H34V9H41V46H7ZM29 16H19V14H29V16ZM13 18H35V20H13V18ZM13 22H35V24H13V22ZM13 26H35V28H13V26ZM13 30H35V32H13V30ZM13 34H35V36H13V34Z"  fill="currentColor"/>
</svg>
